!!!OTL: SCHOEN IST SO WEIT UND BREIT DIE WELT
!!!ARE: Europa, Mitteleuropa, Deutschland, Helgoland
!!!SCT: E1612
!!!YEM: Copyright 1995, estate of Helmut Schaffrath.
**kern
*ICvox
*Ivox
!! Mixed meters:  3/4; 3/8
*M3/8
*k[f#]
*G:
{8d
8g
8a
=1
*M3/4
4.b
16cc
16b
8a
8g
=2
*M3/8
8f#
8g
8a}
=3
{8d
8cc
8cc
=4
*M3/4
8cc
8ee
4dd
4cc
=5
*M3/8
4cc
8b}
=6
{8d
8g
8a
=7
*M3/4
4.b
16cc
16b
8a
8g
=8
*M3/8
8f#
8g
8a}
=9
{8dd
8dd
8gg
=10
*M3/4
8ee
8cc
4.a
8f#
=11
4f#
4g
8r}
{8dd
=12
*M3/8
8gg
8g
8g
=13
16a
16b
4cc}
=14
{8ff#
8f#
8f#
=15
16g
16b
4dd}
=16
{8gg
8g
8g
=17
16a
16b
8cc
16r}
{16a
=18
16ff#
16ee
8dd
8dd
=19
4g
8r}
==
!!!AGN: Staende -, Handwerker -, Gesellen - Lied, Wanderschaft
!!!ONB: ESAC (Essen Associative Code) Database: ERK3
!!!AMT: irregular
!!!AIN: vox
!!!EED: Helmut Schaffrath
!!!EEV: 1.0
*-
